app/assets/images/heroicons/micro/arrow-up-on-square.svg

<svg width="16" height="16" viewBox="0 0 16 16" fill="none" xmlns="http://www.w3.org/2000/svg">
<path d="M8.75 6.00012H7.25024V3.56078L6.03057 4.78045C5.73768 5.07334 5.26281 5.07334 4.96991 4.78045C4.67702 4.48756 4.67702 4.01268 4.96991 3.71979L7.46991 1.21979C7.76281 0.926899 8.23768 0.926899 8.53057 1.21979L11.0306 3.71979C11.3235 4.01268 11.3235 4.48756 11.0306 4.78045C10.7377 5.07335 10.2628 5.07335 9.96991 4.78045L8.75024 3.56078L8.75 6.00012L11 6C12.1046 6 13 6.89543 13 8V13C13 14.1046 12.1046 15 11 15H5C3.89543 15 3 14.1046 3 13V8C3 6.89543 3.89543 6 5 6L7.25024 6.00012L7.25 11.25C7.25 11.6642 7.58579 12 8 12C8.41421 12 8.75 11.6642 8.75 11.25L8.75 6.00012Z" fill="#0F172A"/>
</svg>

<svg xmlns="http://www.w3.org/2000/svg" viewBox="0 0 16 16" fill="currentColor" aria-hidden="true" data-slot="icon">
  <path d="M8.75 6h-1.5V3.56L6.03 4.78a.75.75 0 0 1-1.06-1.06l2.5-2.5a.75.75 0 0 1 1.06 0l2.5 2.5a.75.75 0 1 1-1.06 1.06L8.75 3.56V6H11a2 2 0 0 1 2 2v5a2 2 0 0 1-2 2H5a2 2 0 0 1-2-2V8a2 2 0 0 1 2-2h2.25v5.25a.75.75 0 0 0 1.5 0V6Z"/>
</svg>
